lib/icons/rocket-filled.svg

<svg width="15" height="20" viewBox="0 0 15 20" fill="none" xmlns="http://www.w3.org/2000/svg">
<path d="M9.92357 18.5792L9.92315 17.7757C10.9544 17.9503 11.9857 18.2589 12.9367 18.7013C13.3252 18.8756 13.767 18.6214 13.8203 18.1929L14.0598 15.1665C14.1662 13.8542 13.4424 12.595 12.2503 12.0453L11.9154 11.9246L11.9134 8.04104C11.9125 6.43404 11.3359 4.89371 10.3041 3.67453L8.2405 1.26295C7.74471 0.68685 6.86086 0.686385 6.36568 1.26196L4.30464 3.67137C3.26073 4.87606 2.6991 6.4292 2.69994 8.03619L2.70199 11.9198L2.38067 12.0803C1.17572 12.6421 0.466623 13.8871 0.574446 15.1996L0.80369 18.2128C0.830698 18.6414 1.28616 18.9094 1.6878 18.7222C2.65176 18.2674 3.65597 17.9599 4.70043 17.7997L4.70085 18.6032C4.70101 18.8978 4.94219 19.139 5.2502 19.1526L9.3748 19.128C9.6828 19.1147 9.92372 18.8738 9.92357 18.5792ZM7.30815 10.8776C6.29039 10.8771 5.47307 10.0598 5.47253 9.04202C5.472 8.02426 6.28846 7.2078 7.30622 7.20833C8.32398 7.20887 9.1413 8.02619 9.14184 9.04395C9.14237 10.0617 8.32591 10.8782 7.30815 10.8776Z" fill="#FD9317"/>
</svg>

<svg width="15" height="20" fill="none" xmlns="http://www.w3.org/2000/svg"><path d="M9.924 18.58v-.804c1.03.174 2.062.483 3.013.925.388.175.83-.08.883-.508l.24-3.027a3.164 3.164 0 0 0-1.81-3.12l-.335-.121-.002-3.884a6.76 6.76 0 0 0-1.609-4.366L8.241 1.263a1.233 1.233 0 0 0-1.875-.001l-2.061 2.41A6.65 6.65 0 0 0 2.7 8.035l.002 3.884-.321.16A3.147 3.147 0 0 0 .574 15.2l.23 3.013a.617.617 0 0 0 .884.51A10.897 10.897 0 0 1 4.7 17.8v.803c.001.295.242.536.55.55l4.125-.025a.56.56 0 0 0 .549-.549Zm-2.616-7.702a1.831 1.831 0 0 1-1.835-1.836c-.001-1.018.815-1.834 1.833-1.834s1.835.818 1.836 1.836a1.827 1.827 0 0 1-1.834 1.834Z" fill="#FD9317"/></svg>
